X: 59
T:Unha noite no Santo Cristo
M:2/4
L:1/16
Q:150
C:Trad
S:Rep. "Os Campaneiros"
R:Alborada
K:C
G8 c8 B2A2c2B2A2G2 B2A2G2F2 A2 G8 A2B2A2 G8 F2E2 G2F2E2D2 F2E2D2C2 E2D2C
2B,2 D2 C8 A2G3cG2 C8 | !
E2G2 |: c3"F."gcdcB | c2G2 E2G2 | c3"F."g cdcB | c2G2 E2G2 |F3G FEDF |E3
A G3c |B3A GFED |1 
C4 E2G2 :|2 C8 ||: G4A4 | G8| F4A4 | G8 | E4 A4 | G8 | D4F4 |E8 :| |: E4
- E3"F."c | E6 F2 |
G6 c2 | B2d2 c2A2| G8 | E6 F2 | G6 c2 | B2d2 c2A2 | G8 | c6 A2 | F3G A2c
2| B6G2| E3F G2B2| A6 F2|
D3E F2G2 | E8- :|  E4 GAGA | G4 EGEG c4 | GAGA | G4 E2G2 | c4- cBAB | cB
AB  cBAB | cdcB ABcA | BcBA GABG| 
ABAG FGAF | GAGF EFGE |FGFE DEFD |EFED CDEC |DEDC B,CDB,| C8- |C6 G2 | G
8- |G6 A2 |G8-|
G6 A2| G8- |G8 ||

% Output from ABC2Win  Version 2.1 h on 14/02/99
